src/svg/clipboard.svg

<svg height="1000" width="750.0" xmlns="http://www.w3.org/2000/svg">
    <path d="m750 218.8v687.5c0 51.7-42 93.7-93.7 93.7h-562.5c-51.8 0-93.8-42-93.8-93.7v-687.5c0-51.8 42-93.8 93.8-93.8h156.2c0-68.9 56.1-125 125-125s125 56.1 125 125h156.3c51.7 0 93.7 42 93.7 93.8z m-375-140.7c-25.9 0-46.9 21-46.9 46.9s21 46.9 46.9 46.9 46.9-21 46.9-46.9-21-46.9-46.9-46.9z m187.5 222.7v-39.1c0-6.4-5.3-11.7-11.7-11.7h-351.6c-6.4 0-11.7 5.3-11.7 11.7v39.1c0 6.4 5.3 11.7 11.7 11.7h351.6c6.4 0 11.7-5.3 11.7-11.7z" />
  </svg>

<svg height="1000" width="750" xmlns="http://www.w3.org/2000/svg"><path d="M750 218.8v687.5c0 51.7 -42 93.7 -93.7 93.7H93.8C42 1000 0 958 0 906.3V218.8C0 167 42 125 93.8 125H250C250 56.1 306.1 0 375 0s125 56.1 125 125h156.3c51.7 0 93.7 42 93.7 93.8zM375 78.1c-25.9 0 -46.9 21 -46.9 46.9s21 46.9 46.9 46.9 46.9 -21 46.9 -46.9S400.9 78.1 375 78.1m187.5 222.7v-39.1A11.7 -11.7 0 0 1 550.8 250H199.2a11.7 -11.7 0 0 1 -11.7 11.7v39.1a11.7 -11.7 0 0 1 11.7 11.7h351.6a11.7 -11.7 0 0 1 11.7 -11.7z"/></svg>
